X:20
T:My Lady Monteith's Lament
Z:Jack Campin - http://www.campin.me.uk
S:Blaikie MS (NLS MS.1578) p8, Blaikie #19
M:C
L:1/4
V:1 midi program 1 74
V:2 midi program 1 46 bass middle = d transpose -24
Q:1/4=80
K:Eb
[V:1] E|EF GB|c>Bce|cB eG|F>E C/E/F/G/|EF    GB   |cB ce|cB eG|F2 E2||
[V:2] z|eB eg|ag aa|ag ee|g2  a   z   |eB    eg   |ag a2|ag ee|B2 e2||
%
[V:1]   Bc ef|gf ec|cB eG|F>E F2      |Bc    ef   |gf eB|cB eG|B2 c2 |
[V:2]   Ee Ee|Ee Ee|Ee Ee|Bb  B   b   |ga    gf   |eB cG|AG Ee|b2 a2 |
%
[V:1]   Bc ef|gf ec|cB eG|F>E C/E/F/G/|EE/F/ GG/B/|cB ce|cB eG|F2 E2|]
[V:2]   ga gf|eB cA|AG Ee|g2  a   z   |ez    ez   |ee ee|ag ee|B2 E2|]
W:Transcription (c) Jack Campin 2009, no mirroring or republication without permission

